X: 274
T: Cuir Barr Air
R: slip jig
M: 9/8
L: 1/8
K: Dmaj
|:B|A2F F3 d2A|Bcde2cd2B|A2F F3 d2A|Bcd A2F D2A|
A2F F3 d2A|Bcd e2c d2B|A2F F3 d2A|Bcd A2F D2:|s
|:g|f2d d2c d2f|e2=c c2B c2e|d2B B2A B2d|^c2A A2e a2g|
f2d d2c d2f|e2=c c2B c2e|d2A B^cd e2c|1 d3 d3 d2:|2 d3 d3 d3 |]
F: https://thesession.org/tunes/2608#setting27764

